X:1
T:Title
%%score { ( 1 3 ) | ( 2 4 5 ) }
L:1/8
M:4/4
K:Eb
V:1 treble nm="Grand Piano"
V:3 treble 
V:2 bass 
V:4 bass 
V:5 bass 
V:1
 z4 z2[Q:1/4=100] [EG]>[FA] | [GB]2 [Ac]>[GB] [Ge]2 [Bd]>[Ac] | [GB]4 [EG]2 [GB]>[GB] | %3
 [DFB]2 [B,DF]>[B,DF] [DGB]2 [B,FA]>[B,FA] | [B,EG]6 [B,EG]>[B,FA] | %5
 [GB]2 [Ac]>[GB] [Ge]2 [Bd]>[Ac] | [GB]4 G2 G>G | F2 B>B d2 c>c |[M:3/4] [DB]6 |[M:1/4] B>B | %10
[M:4/4] e6 z2 | B6 z2 | [DFA]2 [B,FA]>[B,FA] [B,FA]2 [DAc]>[DGB] | [EGB]4 [EG]2 z2 | %14
 z2 E>E E2 (3edc | B6 z2 | d2 d>e f2 [Ac]>[Ad] |[M:3/4] [Ge]6 |] %18
V:2
 z4 z2 [E,B,]>[E,E] | [E,E]2 [E,E]>[E,E] [E,B,]2 [E,E]>[E,E] | [E,E]4 [E,B,]2 [E,E]>[E,E] | %3
 B,,2 B,,>B,, B,,2 B,,>B,, | E,6 E,>E, | [E,E]2 [E,E]>[E,E] [E,B,]2 [E,E]>[E,E] | %6
 [E,E]4 [E,B,E]2 [E,B,E]>[E,B,E] | [F,B,D]2 [F,B,D]>[F,B,D] [F,B,F]2 [F,=A,E]>[F,A,E] | %8
[M:3/4] [B,,B,]6 |[M:1/4] z2 |[M:4/4] z2 [E,B,]>[E,B,] [E,B,]2 z2 | %11
 z2 [E,E]>[E,E] [E,E]2 [E,E]>[E,E] | B,,2 B,,>B,, B,,2 B,,>B,, | z4 B,2[K:treble] B>B | c6 z2 | %15
 z4[K:bass] z2 [B,E]2[K:treble] | [B,F]2 [B,F]>[B,G] [B,A]2[K:bass] [B,,B,]>[B,,B,] | %17
[M:3/4] [E,B,]6 |] %18
V:3
 x8 | x8 | x8 | x8 | x8 | x8 | x8 | x8 |[M:3/4] x6 |[M:1/4] x2 |[M:4/4] z2 G>G G2 (3GAc | %11
 z2 G>G G2 [GB]>[GB] | x8 | x8 | x8 | z2 G>G G2 (3GBe | x8 |[M:3/4] x6 |] %18
V:4
 x8 | x8 | x8 | x8 | x8 | x8 | x8 | x8 |[M:3/4] x6 |[M:1/4] x2 |[M:4/4] x8 | x8 | x8 | %13
 E,6[K:treble] z2 | z2 A,>A, A,2 z2 | z2[K:bass] [E,E]>[E,E] [E,E]2 (3:2:2z2[K:treble] G | %16
 x6[K:bass] x2 |[M:3/4] x6 |] %18
V:5
 x8 | x8 | x8 | x8 | x8 | x8 | x8 | x8 |[M:3/4] x6 |[M:1/4] x2 |[M:4/4] x8 | x8 | x8 | %13
 x6[K:treble] x2 | x8 | z4[K:bass] z2 E,2[K:treble] | x6[K:bass] x2 |[M:3/4] x6 |] %18

